!!!COM: Josh Bloom
!!!OTL: AC Mozart #0
!!!ODT: 2015
!!!OMV: Mvmt. 1
!!!OPS: Op. 0
**kern	**kern	**dynam
*staff2	*staff1	*staff1/2
*Ipiano	*Ipiano	*Ipiano
*clefF4	*clefG2	*clefG2
*k[f#c#g#d#]	*k[f#c#g#d#]	*k[f#c#g#d#]
*E:		*E:		*E:
*M4/4		*M4/4		*M4/4
*MM80		*MM80		*MM80
=1-	=1-	=1-
8r	16cc#\LL	.
.	16ee\	.
8r	16cc#\	.
.	16dd\JJ	.
4r	16gg#\LL	.
.	16aa\	.
.	16dd\	.
.	16ff#\JJ)	.
.	16dd\LL	.
.	16gg'\	.
.	16ee\	.
.	16gg#\JJ	.
*clefF4	*	*
=2	=2	=2
8.GG#\L	16bb\LL	.
.	16ee\	.
8F#\	16gg\	.
.	16ee#\JJ	.
8G\	16ff#\LL	.
.	16bb\	.
8G#\	16ff#\	.
.	16gg#\	.
8G#\J	16ff#\	.
.	16ccc#\JJ	.
=3	=3	=3
8r	16ff#\LL	.
.	16gg#\	.
8D\ 8G#\ 8c#\	16bb\	.
.	16ccc\JJ)	.
=4	=4	=4
8G#\L	8ff\L	.
8F#\	16gg\	.
.	16aa\	.
8D\ 8d\J	16eee\	.
.	16ddd\JJ)	.
=5	=5	=5
(4C\ 4B\	4cc/ 4g/	.
8c\L	4r	.
8e\	.	.
8A\	8gg#\L	.
8G#\	8ff#\	.
8d\J	8cc#'\J	.
16G#\LL	4cc'\	.
16d\	.	.
16d\	.	.
16e\JJ	.	.
=6	=6	=6
16F#\LL	8.ff#'\L	.
16c#\	.	.
16G\	.	.
16F#\	(4ee\	.
16A\JJ)	.	.
=7	=7	=7
*^	*	*
.	24r	(8dd\L	p
.	.	8ee'\J	.
*v	*v	*	*
=8	=8	=8
8E\ 8d\	(16gg\LL	.
.	16gg#\	.
.	16ee\	.
.	16ee\JJ	.
8r	16b\LL	.
.	16ee\	.
8A\ 8c#\	16ff#\	.
.	16bb\JJ	.
8r	16.ff#\LL	.
.	16ccc#\	.
8r	16ff#\	.
.	16cc#\JJ	.
8G\ 8d\	16ff#\LL	.
.	16dd#\ 16gg\	.
8E\ 8d#\	16dd\	.
.	16ee'\JJ)	.
4E\ 4E\	16b\LL	.
.	16gg#\	.
.	16aa\	.
.	16bb\JJ)	.
=9	=9	=9
16A\LL	8gg'\L	.
16B\	.	.
16c#\	(16eee\LL	.
16e#\	16gg#\	.
16c#\	16ddd\	.
16b\JJ	16gg\JJ	.
16A\LL	16ee\LL	.
16c#\	16ee\	.
16a\	16cc#\	.
16e\	16ddd\JJ	.
16e\	16bb\LL	.
16f#\JJ	16ddd\JJ)	.
16B\LL	16ccc#\LL	.
16a\	(16bb\	.
16G#\	16ddd'\	.
16g#\	16gg\	.
16A\JJ	16aa\JJ	.
=10	=10	=10
16c#\LL	16ddd\LL	.
16f#\	16ff#\	.
16d\	16bb\	.
16e\	16ccc#\	.
16d\	16gg\	.
16c#\	16ee\	.
16e\JJ	16aan\JJ	.
16A\LL	16aa\LL	.
16b\	16aan\	.
16B\	16ccc#\	.
16cc#\	16eee\	.
16c#\JJ	16dd#\JJ)	.
16r	16ff#\LL	.
16c#\	16aa\	.
16c\	16bb\	.
16G\JJ	16ccc#\JJ	.
*clefG2	*	*
=11	=11	=11
8r	16bb'\LL	.
.	16gg#\	.
8r	16eee\	.
.	16aa\JJ	.
=12	=12	=12
8e'/L	16bb'\LL	.
.	16eee\	.
8A/ 8dd/	16ccc#\	.
.	16gg\	.
8c#'/J)	16gg#\	.
.	16eee\JJ	.
=13	=13	=13
8r	16gg\LL	.
.	16ddd\	.
8r	16gg#\	.
.	16ff#\JJ)	.
=14	=14	=14
8g/L)	(16ccc#\LL	.
.	16aa\	.
8f#/	16aa\	.
.	16gg#\	.
8f#/J	16ddd\	.
.	16bb'\JJ	.
8g/ 8cc#/ 8cc'/L	8aa\	.
8c#/ 8b/ 8cc#'/J
==   ==  ==
*-   *-  *-